avogadro/qtplugins/templatetool/centers/8-sqa.svg

<svg xmlns="http://www.w3.org/2000/svg" xmlns:xlink="http://www.w3.org/1999/xlink" width="32" height="28" viewBox="0 0 32 28" style="background-color:#ffffff00" version="1.1"><path fill="#000" stroke="none" d="M 3405.39,2357.81 L 3447.81,2315.39 L 3455.44,2324.73 L 3414.73,2365.44 L 3405.39,2357.81 Z" transform="matrix(0.05 0 0 0.05 -166 -113)"/><path fill="#000" stroke="none" d="M 3449.28,2393.65 L 3483.65,2359.28 L 3491.28,2368.63 L 3458.63,2401.28 L 3449.28,2393.65 Z" transform="matrix(0.05 0 0 0.05 -166 -113)"/><path fill="#000" stroke="none" d="M 3493.18,2429.5 L 3519.5,2403.18 L 3527.12,2412.53 L 3502.53,2437.12 L 3493.18,2429.5 Z" transform="matrix(0.05 0 0 0.05 -166 -113)"/><path fill="#000" stroke="none" d="M 3537.08,2465.34 L 3555.34,2447.08 L 3562.97,2456.42 L 3546.42,2472.97 L 3537.08,2465.34 Z" transform="matrix(0.05 0 0 0.05 -166 -113)"/><path fill="#000" stroke="none" d="M 3580.98,2501.18 L 3591.18,2490.98 L 3598.81,2500.32 L 3590.32,2508.81 L 3580.98,2501.18 Z" transform="matrix(0.05 0 0 0.05 -166 -113)"/><path fill="#000" stroke="none" d="M 3447.81,2764.61 L 3405.39,2722.19 L 3619.04,2541.44 L 3630,2540 L 3630.35,2548.84 L 3447.81,2764.61 Z" transform="matrix(0.05 0 0 0.05 -166 -113)"/><path fill="#000" stroke="none" d="M 3829.16,2332.36 L 3837.64,2340.84 L 3642.32,2536.16 L 3630,2540 L 3629.29,2532.23 L 3829.16,2332.36 Z" transform="matrix(0.05 0 0 0.05 -166 -113)"/><path fill="#000" stroke="none" d="M 3837.64,2739.16 L 3829.16,2747.64 L 3630.35,2548.84 L 3630,2540 L 3653.21,2554.72 L 3837.64,2739.16 Z" transform="matrix(0.05 0 0 0.05 -166 -113)"/><path fill="#000" stroke="none" d="M 3395.58,2709.98 L 3365.58,2658.02 L 3376.58,2653.07 L 3405.37,2702.93 L 3395.58,2709.98 Z" transform="matrix(0.05 0 0 0.05 -166 -113)"/><path fill="#000" stroke="none" d="M 3441.63,2676.82 L 3417.33,2634.72 L 3428.32,2629.77 L 3451.42,2669.77 L 3441.63,2676.82 Z" transform="matrix(0.05 0 0 0.05 -166 -113)"/><path fill="#000" stroke="none" d="M 3487.67,2643.66 L 3469.07,2611.43 L 3480.07,2606.48 L 3497.46,2636.61 L 3487.67,2643.66 Z" transform="matrix(0.05 0 0 0.05 -166 -113)"/><path fill="#000" stroke="none" d="M 3533.72,2610.49 L 3520.81,2588.14 L 3531.81,2583.19 L 3543.5,2603.45 L 3533.72,2610.49 Z" transform="matrix(0.05 0 0 0.05 -166 -113)"/><path fill="#000" stroke="none" d="M 3579.76,2577.33 L 3572.55,2564.84 L 3583.55,2559.89 L 3589.55,2570.28 L 3579.76,2577.33 Z" transform="matrix(0.05 0 0 0.05 -166 -113)"/><path fill="#000" stroke="none" d="M 3915.79,2585.83 L 3900.21,2643.77 L 3653.21,2554.72 L 3630,2540 L 3642.32,2536.16 L 3915.79,2585.83 Z" transform="matrix(0.05 0 0 0.05 -166 -113)"/><path fill="#000" stroke="none" d="M 3365.58,2421.98 L 3395.58,2370.02 L 3629.29,2532.23 L 3630,2540 L 3619.04,2541.44 L 3365.58,2421.98 Z" transform="matrix(0.05 0 0 0.05 -166 -113)"/><path fill="#000" stroke="none" d="M 3900.21,2436.23 L 3915.79,2494.17 L 3903.89,2496.12 L 3888.93,2440.52 L 3900.21,2436.23 Z" transform="matrix(0.05 0 0 0.05 -166 -113)"/><path fill="#000" stroke="none" d="M 3847.19,2456.39 L 3859.82,2503.33 L 3847.92,2505.28 L 3835.92,2460.68 L 3847.19,2456.39 Z" transform="matrix(0.05 0 0 0.05 -166 -113)"/><path fill="#000" stroke="none" d="M 3794.18,2476.56 L 3803.84,2512.49 L 3791.94,2514.44 L 3782.9,2480.85 L 3794.18,2476.56 Z" transform="matrix(0.05 0 0 0.05 -166 -113)"/><path fill="#000" stroke="none" d="M 3741.16,2496.72 L 3747.87,2521.65 L 3735.97,2523.6 L 3729.89,2501.01 L 3741.16,2496.72 Z" transform="matrix(0.05 0 0 0.05 -166 -113)"/><path fill="#000" stroke="none" d="M 3688.15,2516.89 L 3691.89,2530.81 L 3679.99,2532.76 L 3676.87,2521.17 L 3688.15,2516.89 Z" transform="matrix(0.05 0 0 0.05 -166 -113)"/><path fill="#107f80" stroke="none" d="M 3500.4,2540 A 129.6,129.6 0 1 0 3759.6,2540A 129.6,129.6 0 1 0 3500.4,2540Z" transform="matrix(0.05 0 0 0.05 -166 -113)"/><path fill="#1e8687" stroke="none" d="M 3501.9,2537.98 A 126.073,126.073 0 1 0 3754.05,2537.98A 126.073,126.073 0 1 0 3501.9,2537.98Z" transform="matrix(0.05 0 0 0.05 -166 -113)"/><path fill="#2c8e8f" stroke="none" d="M 3503.4,2535.95 A 122.545,122.545 0 1 0 3748.5,2535.95A 122.545,122.545 0 1 0 3503.4,2535.95Z" transform="matrix(0.05 0 0 0.05 -166 -113)"/><path fill="#3a9596" stroke="none" d="M 3504.91,2533.93 A 119.018,119.018 0 1 0 3742.94,2533.93A 119.018,119.018 0 1 0 3504.91,2533.93Z" transform="matrix(0.05 0 0 0.05 -166 -113)"/><path fill="#489d9d" stroke="none" d="M 3506.41,2531.9 A 115.491,115.491 0 1 0 3737.39,2531.9A 115.491,115.491 0 1 0 3506.41,2531.9Z" transform="matrix(0.05 0 0 0.05 -166 -113)"/><path fill="#54a3a4" stroke="none" d="M 3507.91,2529.88 A 111.963,111.963 0 1 0 3731.84,2529.88A 111.963,111.963 0 1 0 3507.91,2529.88Z" transform="matrix(0.05 0 0 0.05 -166 -113)"/><path fill="#61aaab" stroke="none" d="M 3509.41,2527.85 A 108.436,108.436 0 1 0 3726.29,2527.85A 108.436,108.436 0 1 0 3509.41,2527.85Z" transform="matrix(0.05 0 0 0.05 -166 -113)"/><path fill="#6db0b1" stroke="none" d="M 3510.92,2525.83 A 104.909,104.909 0 1 0 3720.73,2525.83A 104.909,104.909 0 1 0 3510.92,2525.83Z" transform="matrix(0.05 0 0 0.05 -166 -113)"/><path fill="#78b7b7" stroke="none" d="M 3512.42,2523.8 A 101.381,101.381 0 1 0 3715.18,2523.8A 101.381,101.381 0 1 0 3512.42,2523.8Z" transform="matrix(0.05 0 0 0.05 -166 -113)"/><path fill="#83bcbd" stroke="none" d="M 3513.92,2521.78 A 97.8538,97.8538 0 1 0 3709.63,2521.78A 97.8538,97.8538 0 1 0 3513.92,2521.78Z" transform="matrix(0.05 0 0 0.05 -166 -113)"/><path fill="#8ec2c2" stroke="none" d="M 3515.42,2519.75 A 94.3265,94.3265 0 1 0 3704.08,2519.75A 94.3265,94.3265 0 1 0 3515.42,2519.75Z" transform="matrix(0.05 0 0 0.05 -166 -113)"/><path fill="#98c7c8" stroke="none" d="M 3516.93,2517.73 A 90.7991,90.7991 0 1 0 3698.52,2517.73A 90.7991,90.7991 0 1 0 3516.93,2517.73Z" transform="matrix(0.05 0 0 0.05 -166 -113)"/><path fill="#a1cdcd" stroke="none" d="M 3518.43,2515.7 A 87.2718,87.2718 0 1 0 3692.97,2515.7A 87.2718,87.2718 0 1 0 3518.43,2515.7Z" transform="matrix(0.05 0 0 0.05 -166 -113)"/><path fill="#aad1d2" stroke="none" d="M 3519.93,2513.68 A 83.7444,83.7444 0 1 0 3687.42,2513.68A 83.7444,83.7444 0 1 0 3519.93,2513.68Z" transform="matrix(0.05 0 0 0.05 -166 -113)"/><path fill="#b3d6d6" stroke="none" d="M 3521.43,2511.65 A 80.2171,80.2171 0 1 0 3681.87,2511.65A 80.2171,80.2171 0 1 0 3521.43,2511.65Z" transform="matrix(0.05 0 0 0.05 -166 -113)"/><path fill="#bbdadb" stroke="none" d="M 3522.94,2509.63 A 76.6898,76.6898 0 1 0 3676.31,2509.63A 76.6898,76.6898 0 1 0 3522.94,2509.63Z" transform="matrix(0.05 0 0 0.05 -166 -113)"/><path fill="#c3dfdf" stroke="none" d="M 3524.44,2507.6 A 73.1624,73.1624 0 1 0 3670.76,2507.6A 73.1624,73.1624 0 1 0 3524.44,2507.6Z" transform="matrix(0.05 0 0 0.05 -166 -113)"/><path fill="#cae2e3" stroke="none" d="M 3525.94,2505.58 A 69.6351,69.6351 0 1 0 3665.21,2505.58A 69.6351,69.6351 0 1 0 3525.94,2505.58Z" transform="matrix(0.05 0 0 0.05 -166 -113)"/><path fill="#d1e6e6" stroke="none" d="M 3527.44,2503.55 A 66.1077,66.1077 0 1 0 3659.66,2503.55A 66.1077,66.1077 0 1 0 3527.44,2503.55Z" transform="matrix(0.05 0 0 0.05 -166 -113)"/><path fill="#d7e9ea" stroke="none" d="M 3528.94,2501.53 A 62.5804,62.5804 0 1 0 3654.11,2501.53A 62.5804,62.5804 0 1 0 3528.94,2501.53Z" transform="matrix(0.05 0 0 0.05 -166 -113)"/><path fill="#ddeded" stroke="none" d="M 3530.45,2499.5 A 59.053,59.053 0 1 0 3648.55,2499.5A 59.053,59.053 0 1 0 3530.45,2499.5Z" transform="matrix(0.05 0 0 0.05 -166 -113)"/><path fill="#e2efef" stroke="none" d="M 3531.95,2497.48 A 55.5257,55.5257 0 1 0 3643,2497.48A 55.5257,55.5257 0 1 0 3531.95,2497.48Z" transform="matrix(0.05 0 0 0.05 -166 -113)"/><path fill="#e7f2f2" stroke="none" d="M 3533.45,2495.45 A 51.9984,51.9984 0 1 0 3637.45,2495.45A 51.9984,51.9984 0 1 0 3533.45,2495.45Z" transform="matrix(0.05 0 0 0.05 -166 -113)"/><path fill="#ecf4f4" stroke="none" d="M 3534.95,2493.43 A 48.471,48.471 0 1 0 3631.9,2493.43A 48.471,48.471 0 1 0 3534.95,2493.43Z" transform="matrix(0.05 0 0 0.05 -166 -113)"/><path fill="#f0f7f7" stroke="none" d="M 3536.46,2491.4 A 44.9437,44.9437 0 1 0 3626.34,2491.4A 44.9437,44.9437 0 1 0 3536.46,2491.4Z" transform="matrix(0.05 0 0 0.05 -166 -113)"/><path fill="#f3f8f8" stroke="none" d="M 3537.96,2489.38 A 41.4163,41.4163 0 1 0 3620.79,2489.38A 41.4163,41.4163 0 1 0 3537.96,2489.38Z" transform="matrix(0.05 0 0 0.05 -166 -113)"/><path fill="#f6fafa" stroke="none" d="M 3539.46,2487.35 A 37.889,37.889 0 1 0 3615.24,2487.35A 37.889,37.889 0 1 0 3539.46,2487.35Z" transform="matrix(0.05 0 0 0.05 -166 -113)"/><path fill="#f9fbfb" stroke="none" d="M 3540.96,2485.33 A 34.3616,34.3616 0 1 0 3609.69,2485.33A 34.3616,34.3616 0 1 0 3540.96,2485.33Z" transform="matrix(0.05 0 0 0.05 -166 -113)"/><path fill="#fbfdfd" stroke="none" d="M 3542.47,2483.3 A 30.8343,30.8343 0 1 0 3604.13,2483.3A 30.8343,30.8343 0 1 0 3542.47,2483.3Z" transform="matrix(0.05 0 0 0.05 -166 -113)"/><path fill="#fcfdfd" stroke="none" d="M 3543.97,2481.28 A 27.3069,27.3069 0 1 0 3598.58,2481.28A 27.3069,27.3069 0 1 0 3543.97,2481.28Z" transform="matrix(0.05 0 0 0.05 -166 -113)"/><path fill="#fefefe" stroke="none" d="M 3545.47,2479.25 A 23.7796,23.7796 0 1 0 3593.03,2479.25A 23.7796,23.7796 0 1 0 3545.47,2479.25Z" transform="matrix(0.05 0 0 0.05 -166 -113)"/><path fill="#fefefe" stroke="none" d="M 3546.97,2477.23 A 20.2523,20.2523 0 1 0 3587.48,2477.23A 20.2523,20.2523 0 1 0 3546.97,2477.23Z" transform="matrix(0.05 0 0 0.05 -166 -113)"/><path fill="none" stroke="#107f80" stroke-width="12" d="M 3500.4,2540 A 129.6,129.6 0 1 0 3759.6,2540A 129.6,129.6 0 1 0 3500.4,2540Z" transform="matrix(0.05 0 0 0.05 -166 -113)"/></svg>

<svg height="28" viewBox="0 0 32 28" width="32" xmlns="http://www.w3.org/2000/svg"><g transform="matrix(.05 0 0 .05 -166 -113)"><path d="m3405.39 2357.81 42.42-42.42 7.63 9.34-40.71 40.71z"/><path d="m3449.28 2393.65 34.37-34.37 7.63 9.35-32.65 32.65z"/><path d="m3493.18 2429.5 26.32-26.32 7.62 9.35-24.59 24.59z"/><path d="m3537.08 2465.34 18.26-18.26 7.63 9.34-16.55 16.55z"/><path d="m3580.98 2501.18 10.2-10.2 7.63 9.34-8.49 8.49z"/><path d="m3447.81 2764.61-42.42-42.42 213.65-180.75 10.96-1.44.35 8.84z"/><path d="m3829.16 2332.36 8.48 8.48-195.32 195.32-12.32 3.84-.71-7.77z"/><path d="m3837.64 2739.16-8.48 8.48-198.81-198.8-.35-8.84 23.21 14.72z"/><path d="m3395.58 2709.98-30-51.96 11-4.95 28.79 49.86z"/><path d="m3441.63 2676.82-24.3-42.1 10.99-4.95 23.1 40z"/><path d="m3487.67 2643.66-18.6-32.23 11-4.95 17.39 30.13z"/><path d="m3533.72 2610.49-12.91-22.35 11-4.95 11.69 20.26z"/><path d="m3579.76 2577.33-7.21-12.49 11-4.95 6 10.39z"/><path d="m3915.79 2585.83-15.58 57.94-247-89.05-23.21-14.72 12.32-3.84z"/><path d="m3365.58 2421.98 30-51.96 233.71 162.21.71 7.77-10.96 1.44z"/><path d="m3900.21 2436.23 15.58 57.94-11.9 1.95-14.96-55.6z"/><path d="m3847.19 2456.39 12.63 46.94-11.9 1.95-12-44.6z"/><path d="m3794.18 2476.56 9.66 35.93-11.9 1.95-9.04-33.59z"/><path d="m3741.16 2496.72 6.71 24.93-11.9 1.95-6.08-22.59z"/><path d="m3688.15 2516.89 3.74 13.92-11.9 1.95-3.12-11.59z"/><path d="m3500.4 2540a129.6 129.6 0 1 0 259.2 0 129.6 129.6 0 1 0 -259.2 0z" fill="#107f80"/><path d="m3501.9 2537.98a126.073 126.073 0 1 0 252.15 0 126.073 126.073 0 1 0 -252.15 0z" fill="#1e8687"/><path d="m3503.4 2535.95a122.545 122.545 0 1 0 245.1 0 122.545 122.545 0 1 0 -245.1 0z" fill="#2c8e8f"/><path d="m3504.91 2533.93a119.018 119.018 0 1 0 238.03 0 119.018 119.018 0 1 0 -238.03 0z" fill="#3a9596"/><path d="m3506.41 2531.9a115.491 115.491 0 1 0 230.98 0 115.491 115.491 0 1 0 -230.98 0z" fill="#489d9d"/><path d="m3507.91 2529.88a111.963 111.963 0 1 0 223.93 0 111.963 111.963 0 1 0 -223.93 0z" fill="#54a3a4"/><path d="m3509.41 2527.85a108.436 108.436 0 1 0 216.88 0 108.436 108.436 0 1 0 -216.88 0z" fill="#61aaab"/><path d="m3510.92 2525.83a104.909 104.909 0 1 0 209.81 0 104.909 104.909 0 1 0 -209.81 0z" fill="#6db0b1"/><path d="m3512.42 2523.8a101.381 101.381 0 1 0 202.76 0 101.381 101.381 0 1 0 -202.76 0z" fill="#78b7b7"/><path d="m3513.92 2521.78a97.854 97.854 0 1 0 195.71 0 97.854 97.854 0 1 0 -195.71 0z" fill="#83bcbd"/><path d="m3515.42 2519.75a94.327 94.327 0 1 0 188.66 0 94.327 94.327 0 1 0 -188.66 0z" fill="#8ec2c2"/><path d="m3516.93 2517.73a90.799 90.799 0 1 0 181.59 0 90.799 90.799 0 1 0 -181.59 0z" fill="#98c7c8"/><path d="m3518.43 2515.7a87.272 87.272 0 1 0 174.54 0 87.272 87.272 0 1 0 -174.54 0z" fill="#a1cdcd"/><path d="m3519.93 2513.68a83.744 83.744 0 1 0 167.49 0 83.744 83.744 0 1 0 -167.49 0z" fill="#aad1d2"/><path d="m3521.43 2511.65a80.217 80.217 0 1 0 160.44 0 80.217 80.217 0 1 0 -160.44 0z" fill="#b3d6d6"/><path d="m3522.94 2509.63a76.69 76.69 0 1 0 153.37 0 76.69 76.69 0 1 0 -153.37 0z" fill="#bbdadb"/><path d="m3524.44 2507.6a73.162 73.162 0 1 0 146.32 0 73.162 73.162 0 1 0 -146.32 0z" fill="#c3dfdf"/><path d="m3525.94 2505.58a69.635 69.635 0 1 0 139.27 0 69.635 69.635 0 1 0 -139.27 0z" fill="#cae2e3"/><path d="m3527.44 2503.55a66.108 66.108 0 1 0 132.22 0 66.108 66.108 0 1 0 -132.22 0z" fill="#d1e6e6"/><path d="m3528.94 2501.53a62.58 62.58 0 1 0 125.17 0 62.58 62.58 0 1 0 -125.17 0z" fill="#d7e9ea"/><path d="m3530.45 2499.5a59.053 59.053 0 1 0 118.1 0 59.053 59.053 0 1 0 -118.1 0z" fill="#ddeded"/><path d="m3531.95 2497.48a55.526 55.526 0 1 0 111.05 0 55.526 55.526 0 1 0 -111.05 0z" fill="#e2efef"/><path d="m3533.45 2495.45a51.998 51.998 0 1 0 104 0 51.998 51.998 0 1 0 -104 0z" fill="#e7f2f2"/><path d="m3534.95 2493.43a48.471 48.471 0 1 0 96.95 0 48.471 48.471 0 1 0 -96.95 0z" fill="#ecf4f4"/><path d="m3536.46 2491.4a44.944 44.944 0 1 0 89.88 0 44.944 44.944 0 1 0 -89.88 0z" fill="#f0f7f7"/><path d="m3537.96 2489.38a41.416 41.416 0 1 0 82.83 0 41.416 41.416 0 1 0 -82.83 0z" fill="#f3f8f8"/><path d="m3539.46 2487.35a37.889 37.889 0 1 0 75.78 0 37.889 37.889 0 1 0 -75.78 0z" fill="#f6fafa"/><path d="m3540.96 2485.33a34.362 34.362 0 1 0 68.73 0 34.362 34.362 0 1 0 -68.73 0z" fill="#f9fbfb"/><path d="m3542.47 2483.3a30.834 30.834 0 1 0 61.66 0 30.834 30.834 0 1 0 -61.66 0z" fill="#fbfdfd"/><path d="m3543.97 2481.28a27.307 27.307 0 1 0 54.61 0 27.307 27.307 0 1 0 -54.61 0z" fill="#fcfdfd"/><path d="m3545.47 2479.25a23.78 23.78 0 1 0 47.56 0 23.78 23.78 0 1 0 -47.56 0z" fill="#fefefe"/><path d="m3546.97 2477.23a20.252 20.252 0 1 0 40.51 0 20.252 20.252 0 1 0 -40.51 0z" fill="#fefefe"/><path d="m3500.4 2540a129.6 129.6 0 1 0 259.2 0 129.6 129.6 0 1 0 -259.2 0z" fill="none" stroke="#107f80" stroke-width="12"/></g></svg>
